X:133
T: VATER UND MUTTER WOLLNS NICHT LEIDEN
N: E0722C
O: Europa, Mitteleuropa, Deutschland, Thueringen; Sachsen
R: Liebes - Lied, Leid, Klage
M: 3/4
L: 1/8
K: Eb
GA | B2E2ec | B2G2
BB | cAG2F2 | E4
GA | B2E2ec | B2G2
BB | cAG2F2 | E4
BB | c3FFF | B2E2
Be | cAG2F2 | E4

